wallet_core/revocation_portal/assets/images/apple_app_store.svg

<svg width="120" height="40" viewBox="0 0 120 40" fill="none" xmlns="http://www.w3.org/2000/svg">
<rect x="0.5" y="0.5" width="119" height="39" rx="6.5" fill="#0C0D10"/>
<rect x="0.5" y="0.5" width="119" height="39" rx="6.5" stroke="#A6A6A6"/>
<path d="M81.5257 19.2013V21.4924H80.0896V22.9948H81.5257V28.0998C81.5257 29.8429 82.3143 30.5402 84.2981 30.5402C84.6468 30.5402 84.9788 30.4987 85.2693 30.4489V28.9631C85.0203 28.988 84.8626 29.0046 84.5887 29.0046C83.7005 29.0046 83.3104 28.5895 83.3104 27.6432V22.9948H85.2693V21.4924H83.3104V19.2013H81.5257Z" fill="white"/>
<path d="M90.3232 30.6647C92.9628 30.6647 94.5815 28.8967 94.5815 25.9665C94.5815 23.0529 92.9545 21.2765 90.3232 21.2765C87.6835 21.2765 86.0566 23.0529 86.0566 25.9665C86.0566 28.8967 87.6752 30.6647 90.3232 30.6647ZM90.3232 29.0793C88.7709 29.0793 87.8994 27.9421 87.8994 25.9665C87.8994 24.0075 88.7709 22.862 90.3232 22.862C91.8671 22.862 92.747 24.0075 92.747 25.9665C92.747 27.9338 91.8671 29.0793 90.3232 29.0793Z" fill="white"/>
<path d="M95.9664 30.4904H97.7511V25.153C97.7511 23.883 98.7056 23.028 100.059 23.028C100.374 23.028 100.905 23.0861 101.055 23.1359V21.3762C100.864 21.3263 100.524 21.3014 100.258 21.3014C99.0792 21.3014 98.0748 21.9489 97.8175 22.8371H97.6846V21.4509H95.9664V30.4904Z" fill="white"/>
<path d="M105.486 22.7956C106.806 22.7956 107.669 23.717 107.711 25.1364H103.145C103.245 23.7253 104.166 22.7956 105.486 22.7956ZM107.702 28.05C107.37 28.7555 106.632 29.1457 105.552 29.1457C104.125 29.1457 103.203 28.1413 103.145 26.5558V26.4562H109.529V25.8337C109.529 22.9948 108.009 21.2765 105.494 21.2765C102.946 21.2765 101.327 23.111 101.327 25.9997C101.327 28.8884 102.913 30.6647 105.503 30.6647C107.57 30.6647 109.014 29.6686 109.421 28.05H107.702Z" fill="white"/>
<path d="M69.8221 27.1522C69.9598 29.372 71.8095 30.7915 74.5626 30.7915C77.505 30.7915 79.3462 29.3031 79.3462 26.9286C79.3462 25.0616 78.2966 24.0292 75.7499 23.4355L74.382 23.1C72.7645 22.7214 72.1106 22.2138 72.1106 21.3277C72.1106 20.2092 73.1259 19.4779 74.6487 19.4779C76.0941 19.4779 77.0921 20.192 77.2727 21.3363H79.1483C79.0365 19.2456 77.1953 17.7744 74.6745 17.7744C71.9644 17.7744 70.1576 19.2456 70.1576 21.4567C70.1576 23.2807 71.1815 24.3647 73.427 24.8895L75.0272 25.2767C76.6705 25.6638 77.3932 26.2317 77.3932 27.1781C77.3932 28.2793 76.2575 29.0794 74.7089 29.0794C73.0484 29.0794 71.8955 28.3309 71.7321 27.1522H69.8221Z" fill="white"/>
<path d="M51.3348 21.3014C50.1063 21.3014 49.0437 21.9157 48.4959 22.945H48.3631V21.4509H46.6448V33.4953H48.4295V29.1208H48.5706C49.0437 30.0754 50.0647 30.6398 51.3514 30.6398C53.6341 30.6398 55.0867 28.8386 55.0867 25.9665C55.0867 23.0944 53.6341 21.3014 51.3348 21.3014ZM50.8284 29.0378C49.3343 29.0378 48.3963 27.8591 48.3963 25.9748C48.3963 24.0822 49.3343 22.9035 50.8367 22.9035C52.3475 22.9035 53.2522 24.0573 53.2522 25.9665C53.2522 27.884 52.3475 29.0378 50.8284 29.0378Z" fill="white"/>
<path d="M61.3316 21.3014C60.103 21.3014 59.0405 21.9157 58.4927 22.945H58.3599V21.4509H56.6416V33.4953H58.4263V29.1208H58.5674C59.0405 30.0754 60.0615 30.6398 61.3482 30.6398C63.6309 30.6398 65.0835 28.8386 65.0835 25.9665C65.0835 23.0944 63.6309 21.3014 61.3316 21.3014ZM60.8252 29.0378C59.3311 29.0378 58.3931 27.8591 58.3931 25.9748C58.3931 24.0822 59.3311 22.9035 60.8335 22.9035C62.3443 22.9035 63.249 24.0573 63.249 25.9665C63.249 27.884 62.3443 29.0378 60.8252 29.0378Z" fill="white"/>
<path d="M43.4428 30.4904H45.4905L41.008 18.0755H38.9346L34.4521 30.4904H36.431L37.5752 27.1953H42.3072L43.4428 30.4904ZM39.8724 20.3297H40.0186L41.8168 25.5778H38.0656L39.8724 20.3297Z" fill="white"/>
<path d="M40.3984 12.0898C40.3984 13.0326 40.1367 13.7539 39.6133 14.2539C39.0898 14.7513 38.3359 15 37.3516 15H35.7539V9.28906H37.5195C38.4284 9.28906 39.1354 9.53385 39.6406 10.0234C40.1458 10.513 40.3984 11.2018 40.3984 12.0898ZM39.4141 12.1211C39.4141 10.7539 38.7747 10.0703 37.4961 10.0703H36.6875V14.2148H37.3516C38.7266 14.2148 39.4141 13.5169 39.4141 12.1211ZM45.3633 12.832C45.3633 13.5378 45.1823 14.0885 44.8203 14.4844C44.4583 14.8802 43.9544 15.0781 43.3086 15.0781C42.9049 15.0781 42.5482 14.987 42.2383 14.8047C41.9284 14.6224 41.6901 14.3607 41.5234 14.0195C41.3568 13.6784 41.2734 13.2826 41.2734 12.832C41.2734 12.1315 41.4531 11.5846 41.8125 11.1914C42.1719 10.7982 42.6784 10.6016 43.332 10.6016C43.957 10.6016 44.4518 10.8034 44.8164 11.207C45.181 11.6081 45.3633 12.1497 45.3633 12.832ZM42.2188 12.832C42.2188 13.8294 42.5872 14.3281 43.3242 14.3281C44.0534 14.3281 44.418 13.8294 44.418 12.832C44.418 11.8451 44.0508 11.3516 43.3164 11.3516C42.931 11.3516 42.651 11.4792 42.4766 11.7344C42.3047 11.9896 42.2188 12.3555 42.2188 12.832ZM49.9648 15L49.4062 12.9844C49.3385 12.7708 49.2161 12.2747 49.0391 11.4961H49.0039C48.8529 12.1992 48.7331 12.6979 48.6445 12.9922L48.0703 15H47.0547L45.8438 10.6797H46.7812L47.332 12.8086C47.457 13.3346 47.5456 13.7852 47.5977 14.1602H47.6211C47.6471 13.9701 47.6862 13.7526 47.7383 13.5078C47.793 13.2604 47.8398 13.0755 47.8789 12.9531L48.5352 10.6797H49.543L50.1797 12.9531C50.2188 13.0807 50.2669 13.276 50.3242 13.5391C50.3841 13.8021 50.4193 14.0065 50.4297 14.1523H50.4609C50.5 13.832 50.5911 13.3841 50.7344 12.8086L51.293 10.6797H52.2148L50.9961 15H49.9648ZM56.7617 15H55.8398V12.3438C55.8398 12.0104 55.7721 11.7617 55.6367 11.5977C55.5039 11.4336 55.2917 11.3516 55 11.3516C54.612 11.3516 54.3281 11.4661 54.1484 11.6953C53.9688 11.9245 53.8789 12.3086 53.8789 12.8477V15H52.9609V10.6797H53.6797L53.8086 11.2461H53.8555C53.9857 11.0404 54.1706 10.8815 54.4102 10.7695C54.6497 10.6576 54.9154 10.6016 55.207 10.6016C56.2435 10.6016 56.7617 11.1289 56.7617 12.1836V15ZM58.957 15H58.0391V8.92188H58.957V15ZM64.1055 12.832C64.1055 13.5378 63.9245 14.0885 63.5625 14.4844C63.2005 14.8802 62.6966 15.0781 62.0508 15.0781C61.6471 15.0781 61.2904 14.987 60.9805 14.8047C60.6706 14.6224 60.4323 14.3607 60.2656 14.0195C60.099 13.6784 60.0156 13.2826 60.0156 12.832C60.0156 12.1315 60.1953 11.5846 60.5547 11.1914C60.9141 10.7982 61.4206 10.6016 62.0742 10.6016C62.6992 10.6016 63.194 10.8034 63.5586 11.207C63.9232 11.6081 64.1055 12.1497 64.1055 12.832ZM60.9609 12.832C60.9609 13.8294 61.3294 14.3281 62.0664 14.3281C62.7956 14.3281 63.1602 13.8294 63.1602 12.832C63.1602 11.8451 62.793 11.3516 62.0586 11.3516C61.6732 11.3516 61.3932 11.4792 61.2188 11.7344C61.0469 11.9896 60.9609 12.3555 60.9609 12.832ZM67.8672 15L67.6836 14.3984H67.6523C67.444 14.6615 67.2344 14.8411 67.0234 14.9375C66.8125 15.0312 66.5417 15.0781 66.2109 15.0781C65.7865 15.0781 65.4544 14.9635 65.2148 14.7344C64.9779 14.5052 64.8594 14.181 64.8594 13.7617C64.8594 13.3164 65.0247 12.9805 65.3555 12.7539C65.6862 12.5273 66.1901 12.4036 66.8672 12.3828L67.6133 12.3594V12.1289C67.6133 11.8529 67.5482 11.6471 67.418 11.5117C67.2904 11.3737 67.0911 11.3047 66.8203 11.3047C66.599 11.3047 66.3867 11.3372 66.1836 11.4023C65.9805 11.4674 65.7852 11.5443 65.5977 11.6328L65.3008 10.9766C65.5352 10.8542 65.7917 10.7617 66.0703 10.6992C66.349 10.6341 66.612 10.6016 66.8594 10.6016C67.4089 10.6016 67.8229 10.7214 68.1016 10.9609C68.3828 11.2005 68.5234 11.5768 68.5234 12.0898V15H67.8672ZM66.5 14.375C66.8333 14.375 67.1003 14.2826 67.3008 14.0977C67.5039 13.9102 67.6055 13.6484 67.6055 13.3125V12.9375L67.0508 12.9609C66.6185 12.9766 66.3034 13.0495 66.1055 13.1797C65.9102 13.3073 65.8125 13.5039 65.8125 13.7695C65.8125 13.9622 65.8698 14.112 65.9844 14.2188C66.099 14.3229 66.2708 14.375 66.5 14.375ZM71.2617 15.0781C70.7227 15.0781 70.3021 14.8828 70 14.4922C69.6979 14.1016 69.5469 13.5534 69.5469 12.8477C69.5469 12.1393 69.6992 11.5885 70.0039 11.1953C70.3112 10.7995 70.7357 10.6016 71.2773 10.6016C71.8451 10.6016 72.2773 10.8112 72.5742 11.2305H72.6211C72.5768 10.9206 72.5547 10.6758 72.5547 10.4961V8.92188H73.4766V15H72.7578L72.5977 14.4336H72.5547C72.2604 14.8633 71.8294 15.0781 71.2617 15.0781ZM71.5078 14.3359C71.8854 14.3359 72.1602 14.2305 72.332 14.0195C72.5039 13.806 72.5924 13.4609 72.5977 12.9844V12.8555C72.5977 12.3112 72.5091 11.9245 72.332 11.6953C72.1549 11.4661 71.8776 11.3516 71.5 11.3516C71.1771 11.3516 70.9284 11.4831 70.7539 11.7461C70.5794 12.0065 70.4922 12.3789 70.4922 12.8633C70.4922 13.3424 70.5768 13.7083 70.7461 13.9609C70.9154 14.2109 71.1693 14.3359 71.5078 14.3359ZM77.7852 15H76.8672V10.6797H77.7852V15ZM76.8125 9.53516C76.8125 9.37109 76.8568 9.24479 76.9453 9.15625C77.0365 9.06771 77.1654 9.02344 77.332 9.02344C77.4935 9.02344 77.6185 9.06771 77.707 9.15625C77.7982 9.24479 77.8438 9.37109 77.8438 9.53516C77.8438 9.69141 77.7982 9.8151 77.707 9.90625C77.6185 9.99479 77.4935 10.0391 77.332 10.0391C77.1654 10.0391 77.0365 9.99479 76.9453 9.90625C76.8568 9.8151 76.8125 9.69141 76.8125 9.53516ZM82.9023 15H81.9805V12.3438C81.9805 12.0104 81.9128 11.7617 81.7773 11.5977C81.6445 11.4336 81.4323 11.3516 81.1406 11.3516C80.7526 11.3516 80.4688 11.4661 80.2891 11.6953C80.1094 11.9245 80.0195 12.3086 80.0195 12.8477V15H79.1016V10.6797H79.8203L79.9492 11.2461H79.9961C80.1263 11.0404 80.3112 10.8815 80.5508 10.7695C80.7904 10.6576 81.056 10.6016 81.3477 10.6016C82.3841 10.6016 82.9023 11.1289 82.9023 12.1836V15ZM87.7148 15.0781C87.1758 15.0781 86.7552 14.8828 86.4531 14.4922C86.151 14.1016 86 13.5534 86 12.8477C86 12.1393 86.1523 11.5885 86.457 11.1953C86.7643 10.7995 87.1888 10.6016 87.7305 10.6016C88.2982 10.6016 88.7305 10.8112 89.0273 11.2305H89.0742C89.0299 10.9206 89.0078 10.6758 89.0078 10.4961V8.92188H89.9297V15H89.2109L89.0508 14.4336H89.0078C88.7135 14.8633 88.2826 15.0781 87.7148 15.0781ZM87.9609 14.3359C88.3385 14.3359 88.6133 14.2305 88.7852 14.0195C88.957 13.806 89.0456 13.4609 89.0508 12.9844V12.8555C89.0508 12.3112 88.9622 11.9245 88.7852 11.6953C88.6081 11.4661 88.3307 11.3516 87.9531 11.3516C87.6302 11.3516 87.3815 11.4831 87.207 11.7461C87.0326 12.0065 86.9453 12.3789 86.9453 12.8633C86.9453 13.3424 87.0299 13.7083 87.1992 13.9609C87.3685 14.2109 87.6224 14.3359 87.9609 14.3359ZM93.1289 15.0781C92.457 15.0781 91.931 14.8828 91.5508 14.4922C91.1732 14.099 90.9844 13.5586 90.9844 12.8711C90.9844 12.1654 91.1602 11.6107 91.5117 11.207C91.8633 10.8034 92.3464 10.6016 92.9609 10.6016C93.5312 10.6016 93.9818 10.7747 94.3125 11.1211C94.6432 11.4674 94.8086 11.944 94.8086 12.5508V13.0469H91.9297C91.9427 13.4661 92.056 13.7891 92.2695 14.0156C92.4831 14.2396 92.7839 14.3516 93.1719 14.3516C93.4271 14.3516 93.6641 14.3281 93.8828 14.2812C94.1042 14.2318 94.3411 14.151 94.5938 14.0391V14.7852C94.3698 14.8919 94.1432 14.9674 93.9141 15.0117C93.6849 15.056 93.4232 15.0781 93.1289 15.0781ZM92.9609 11.2969C92.6693 11.2969 92.4349 11.3893 92.2578 11.5742C92.0833 11.7591 91.9792 12.0286 91.9453 12.3828H93.9062C93.901 12.026 93.8151 11.7565 93.6484 11.5742C93.4818 11.3893 93.2526 11.2969 92.9609 11.2969Z" fill="white"/>
<path d="M24.769 20.3011C24.7907 18.6201 25.6934 17.0295 27.1256 16.149C26.2221 14.8587 24.7088 14.0406 23.1344 13.9913C21.4552 13.8151 19.8272 14.9962 18.9715 14.9962C18.0992 14.9962 16.7817 14.0088 15.363 14.038C13.5137 14.0978 11.7898 15.1491 10.8901 16.7659C8.95607 20.1143 10.3987 25.0354 12.2513 27.742C13.1782 29.0673 14.2615 30.5478 15.6789 30.4953C17.066 30.4377 17.584 29.6108 19.2583 29.6108C20.9171 29.6108 21.4031 30.4953 22.8493 30.4619C24.3377 30.4377 25.2754 29.1306 26.1698 27.7927C26.8358 26.8484 27.3483 25.8047 27.6882 24.7002C25.9391 23.9604 24.771 22.2002 24.769 20.3011Z" fill="white"/>
<path d="M22.0373 12.2113C22.8489 11.2371 23.2487 9.98494 23.1518 8.7207C21.912 8.85092 20.7668 9.44348 19.9443 10.3803C19.14 11.2956 18.7214 12.5258 18.8006 13.7417C20.0408 13.7545 21.2601 13.178 22.0373 12.2113Z" fill="white"/>
</svg>

<svg xmlns="http://www.w3.org/2000/svg" width="120" height="40" fill="none" viewBox="0 0 120 40"><rect width="119" height="39" x=".5" y=".5" fill="#0c0d10" rx="6.5"/><rect width="119" height="39" x=".5" y=".5" stroke="#a6a6a6" rx="6.5"/><path fill="#fff" d="M81.526 19.201v2.291H80.09v1.503h1.436V28.1c0 1.743.788 2.44 2.772 2.44.349 0 .68-.041.971-.091v-1.486c-.249.025-.406.042-.68.042-.888 0-1.279-.415-1.279-1.362v-4.648h1.96v-1.503h-1.96v-2.29zM90.323 30.665c2.64 0 4.259-1.768 4.259-4.698 0-2.914-1.627-4.69-4.259-4.69-2.64 0-4.266 1.776-4.266 4.69 0 2.93 1.618 4.698 4.266 4.698m0-1.586c-1.552 0-2.424-1.137-2.424-3.113 0-1.959.872-3.104 2.424-3.104 1.544 0 2.424 1.146 2.424 3.105 0 1.967-.88 3.112-2.424 3.112M95.966 30.49h1.785v-5.337c0-1.27.955-2.125 2.308-2.125.315 0 .846.058.996.108v-1.76c-.191-.05-.531-.075-.797-.075-1.179 0-2.183.648-2.44 1.536h-.133v-1.386h-1.719zM105.486 22.796c1.32 0 2.183.921 2.225 2.34h-4.566c.1-1.41 1.021-2.34 2.341-2.34m2.216 5.254c-.332.706-1.07 1.096-2.15 1.096-1.427 0-2.349-1.005-2.407-2.59v-.1h6.384v-.622c0-2.84-1.52-4.558-4.035-4.558-2.548 0-4.167 1.835-4.167 4.724 0 2.888 1.586 4.665 4.176 4.665 2.067 0 3.511-.996 3.918-2.615zM69.822 27.152c.138 2.22 1.987 3.64 4.74 3.64 2.943 0 4.784-1.489 4.784-3.863 0-1.867-1.05-2.9-3.596-3.493l-1.368-.336c-1.618-.379-2.271-.886-2.271-1.772 0-1.119 1.015-1.85 2.538-1.85 1.445 0 2.443.714 2.624 1.858h1.875c-.111-2.09-1.953-3.562-4.474-3.562-2.71 0-4.516 1.472-4.516 3.683 0 1.824 1.023 2.908 3.269 3.433l1.6.387c1.644.387 2.366.955 2.366 1.901 0 1.101-1.136 1.901-2.684 1.901-1.66 0-2.814-.748-2.977-1.927zM51.335 21.301c-1.229 0-2.291.615-2.84 1.644h-.132v-1.494h-1.718v12.044h1.784v-4.374h.142c.473.954 1.494 1.519 2.78 1.519 2.283 0 3.736-1.801 3.736-4.674 0-2.872-1.453-4.665-3.752-4.665m-.507 7.737c-1.494 0-2.432-1.179-2.432-3.063 0-1.893.938-3.072 2.44-3.072 1.511 0 2.416 1.154 2.416 3.064 0 1.917-.905 3.07-2.424 3.07M61.332 21.301c-1.229 0-2.291.615-2.84 1.644h-.132v-1.494h-1.718v12.044h1.784v-4.374h.141c.474.954 1.495 1.519 2.781 1.519 2.283 0 3.736-1.801 3.736-4.674 0-2.872-1.453-4.665-3.752-4.665m-.507 7.737c-1.494 0-2.432-1.179-2.432-3.063 0-1.893.938-3.072 2.44-3.072 1.511 0 2.416 1.154 2.416 3.064 0 1.917-.905 3.07-2.424 3.07M43.443 30.49h2.047l-4.482-12.414h-2.073L34.452 30.49h1.979l1.144-3.295h4.732zm-3.57-10.16h.146l1.798 5.248h-3.751zM40.398 12.09q0 1.414-.785 2.164-.785.746-2.261.746h-1.598V9.29h1.766q1.362 0 2.12.733.758.735.758 2.067m-.984.031q0-2.05-1.918-2.05h-.809v4.144h.665q2.062 0 2.062-2.094m5.95.711q0 1.059-.544 1.652-.543.594-1.511.594-.605 0-1.07-.273a1.8 1.8 0 0 1-.716-.785q-.25-.512-.25-1.188 0-1.05.54-1.64.538-.59 1.519-.59.938 0 1.484.605.547.602.547 1.625m-3.145 0q0 1.496 1.105 1.496 1.095 0 1.094-1.496 0-1.48-1.102-1.48-.577 0-.84.382-.257.383-.257 1.098M49.965 15l-.559-2.016q-.101-.32-.367-1.488h-.035a22 22 0 0 1-.36 1.496L48.07 15h-1.015l-1.211-4.32h.937l.551 2.129q.188.789.266 1.351h.023a9 9 0 0 1 .258-1.207l.656-2.273h1.008l.637 2.273q.058.192.144.586.09.395.106.613h.03q.06-.48.274-1.343l.559-2.13h.922L50.996 15zm6.797 0h-.922v-2.656q0-.5-.203-.746-.2-.246-.637-.246-.582 0-.852.343-.27.345-.27 1.153V15h-.917v-4.32h.719l.129.566h.047q.195-.309.554-.476a1.9 1.9 0 0 1 .797-.168q1.555 0 1.555 1.582zm2.195 0h-.918V8.922h.918zm5.149-2.168q0 1.059-.543 1.652-.544.594-1.512.594-.605 0-1.07-.273a1.8 1.8 0 0 1-.715-.785q-.25-.512-.25-1.188 0-1.05.539-1.64.54-.59 1.52-.59.936 0 1.484.605.547.602.547 1.625m-3.145 0q0 1.496 1.105 1.496 1.094 0 1.094-1.496 0-1.48-1.101-1.48-.579 0-.84.382-.258.383-.258 1.098M67.867 15l-.183-.602h-.032q-.312.395-.629.54-.315.14-.812.14-.637 0-.996-.344-.356-.343-.356-.972 0-.669.497-1.008.495-.34 1.511-.371l.746-.024v-.23q0-.414-.195-.617-.192-.207-.598-.207-.332 0-.636.097a5 5 0 0 0-.586.23l-.297-.655q.35-.184.77-.278.417-.097.788-.097.825 0 1.243.359.42.36.421 1.129V15zm-1.367-.625q.5 0 .8-.277.306-.282.306-.786v-.374l-.555.023q-.65.023-.945.219-.293.19-.293.59 0 .288.171.449.172.156.516.156m4.762.703q-.81 0-1.262-.586-.453-.586-.453-1.644 0-1.063.457-1.653.461-.594 1.273-.593.852 0 1.297.628h.047a5.5 5.5 0 0 1-.066-.734V8.922h.922V15h-.72l-.16-.566h-.042q-.442.644-1.293.644m.246-.742q.566 0 .824-.316.257-.322.266-1.036v-.129q0-.816-.266-1.16-.265-.343-.832-.343a.84.84 0 0 0-.746.394q-.262.39-.262 1.117 0 .72.254 1.098.254.375.762.375m6.277.664h-.918v-4.32h.918zm-.972-5.465q0-.246.132-.379.137-.132.387-.133.243 0 .375.133.137.133.137.38 0 .234-.137.37-.132.133-.375.133-.25 0-.387-.133a.5.5 0 0 1-.132-.37M82.903 15h-.922v-2.656q0-.5-.204-.746-.2-.246-.636-.246-.582 0-.852.343-.27.345-.27 1.153V15h-.917v-4.32h.718l.13.566h.046q.195-.309.555-.476a1.9 1.9 0 0 1 .797-.168q1.554 0 1.554 1.582zm4.812.078q-.81 0-1.262-.586Q86 13.906 86 12.848q0-1.063.457-1.653.46-.594 1.274-.593.851 0 1.296.628h.047a5.5 5.5 0 0 1-.066-.734V8.922h.922V15h-.72l-.16-.566h-.042q-.441.644-1.293.644m.246-.742q.566 0 .824-.316.257-.322.266-1.036v-.129q0-.816-.266-1.16-.265-.343-.832-.343a.84.84 0 0 0-.746.394q-.262.39-.262 1.117 0 .72.254 1.098.254.375.762.375m5.168.742q-1.008 0-1.578-.586-.567-.59-.567-1.62 0-1.06.528-1.665.526-.605 1.449-.605.854 0 1.352.52.496.518.496 1.429v.496h-2.88q.02.63.34.969.321.336.903.336.383 0 .71-.07.333-.075.712-.243v.746q-.335.16-.68.227-.344.066-.785.066m-.168-3.781q-.438 0-.703.277-.262.278-.313.809h1.961q-.007-.535-.258-.809-.249-.277-.687-.277M24.769 20.301a4.99 4.99 0 0 1 2.357-4.152 5.13 5.13 0 0 0-3.992-2.158c-1.679-.176-3.307 1.005-4.163 1.005-.872 0-2.19-.987-3.608-.958a5.36 5.36 0 0 0-4.473 2.728c-1.934 3.348-.491 8.27 1.361 10.976.927 1.325 2.01 2.806 3.428 2.753 1.387-.057 1.905-.884 3.58-.884 1.658 0 2.144.884 3.59.85 1.489-.023 2.426-1.33 3.32-2.668a11 11 0 0 0 1.52-3.093 4.82 4.82 0 0 1-2.92-4.399M22.037 12.211a4.87 4.87 0 0 0 1.115-3.49 4.96 4.96 0 0 0-3.208 1.66 4.68 4.68 0 0 0-1.143 3.36 4.15 4.15 0 0 0 3.236-1.53"/></svg>
